src/images/office-pin.svg

<svg width="37" height="42" viewBox="0 0 37 42" fill="none" xmlns="http://www.w3.org/2000/svg">
<path d="M30.8744 29.2842L18.5 41L6.12556 29.2842C3.67816 26.967 2.01147 24.0148 1.33625 20.8008C0.661026 17.5869 1.0076 14.2555 2.33214 11.228C3.65668 8.20049 5.89969 5.61285 8.77755 3.79229C11.6554 1.97172 15.0388 1 18.5 1C21.9612 1 25.3446 1.97172 28.2225 3.79229C31.1003 5.61285 33.3433 8.20049 34.6679 11.228C35.9924 14.2555 36.339 17.5869 35.6637 20.8008C34.9885 24.0148 33.3218 26.967 30.8744 29.2842Z" fill="#2C36F2"/>
<path d="M19.5179 10.2308H17.8214L10.3564 22.4884H12.562L13.5799 20.7373L19.5179 10.2308Z" fill="#2C36F2"/>
<path d="M11.3744 24.5897H25.6256L19.5179 13.733L18.5 15.4841L21.5538 20.7373L22.5718 22.4884H12.562H10.3564L11.3744 24.5897Z" fill="#2C36F2"/>
<path d="M22.5718 22.4884L21.5538 20.7373H15.4462H13.5799L12.562 22.4884H22.5718Z" fill="#2C36F2"/>
<path d="M25.6256 24.5897L26.6436 22.4884L19.5179 10.2308L13.5799 20.7373H15.4462L18.5 15.4841L19.5179 13.733L25.6256 24.5897Z" fill="#2C36F2"/>
<path d="M18.5 15.4841L15.4462 20.7373H21.5538L18.5 15.4841Z" fill="#2C36F2"/>
<path d="M25.6256 24.5897H11.3744L10.3564 22.4884M25.6256 24.5897L26.6436 22.4884L19.5179 10.2308M25.6256 24.5897L19.5179 13.733L18.5 15.4841M19.5179 10.2308H17.8214L10.3564 22.4884M19.5179 10.2308L13.5799 20.7373M10.3564 22.4884H12.562M18.5 15.4841L15.4462 20.7373M18.5 15.4841L21.5538 20.7373M15.4462 20.7373H21.5538M15.4462 20.7373H13.5799M21.5538 20.7373L22.5718 22.4884H12.562M13.5799 20.7373L12.562 22.4884M30.8744 29.2842L18.5 41L6.12556 29.2842C3.67816 26.967 2.01147 24.0148 1.33625 20.8008C0.661026 17.5869 1.0076 14.2555 2.33214 11.228C3.65668 8.20049 5.89969 5.61285 8.77755 3.79229C11.6554 1.97172 15.0388 1 18.5 1C21.9612 1 25.3446 1.97172 28.2225 3.79229C31.1003 5.61285 33.3433 8.20049 34.6679 11.228C35.9924 14.2555 36.339 17.5869 35.6637 20.8008C34.9885 24.0148 33.3218 26.967 30.8744 29.2842Z" stroke="#F6F7FF" stroke-width="0.5"/>
</svg>

<svg width="37" height="42" viewBox="0 0 37 42" fill="none" xmlns="http://www.w3.org/2000/svg"><path d="M30.874 29.284L18.5 41 6.126 29.284c-2.448-2.317-4.115-5.27-4.79-8.483a15.751 15.751 0 01.996-9.573C3.657 8.2 5.9 5.613 8.778 3.792 11.655 1.972 15.038 1 18.5 1c3.461 0 6.845.972 9.723 2.792 2.877 1.82 5.12 4.408 6.445 7.436a15.75 15.75 0 01.996 9.573c-.675 3.214-2.342 6.166-4.79 8.483z" fill="#2C36F2"/><path d="M19.518 10.23H17.82l-7.465 12.258h2.206l1.018-1.75 5.938-10.507z" fill="#2C36F2"/><path d="M11.374 24.59h14.252l-6.108-10.857-1.018 1.751 3.054 5.253 1.018 1.751H10.356l1.018 2.102z" fill="#2C36F2"/><path d="M22.572 22.488l-1.018-1.75H13.58l-1.018 1.75h10.01z" fill="#2C36F2"/><path d="M25.626 24.59l1.018-2.102-7.126-12.257-5.938 10.506h1.866l3.054-5.253 1.018-1.751 6.108 10.857z" fill="#2C36F2"/><path d="M18.5 15.484l-3.054 5.253h6.108L18.5 15.484z" fill="#2C36F2"/><path d="M25.626 24.59H11.374l-1.018-2.102m15.27 2.102l1.018-2.102-7.126-12.257m6.108 14.359l-6.108-10.857-1.018 1.751m1.018-5.253H17.82l-7.465 12.257m9.162-12.257L13.58 20.737m-3.224 1.751h2.206m5.938-7.004l-3.054 5.253m3.054-5.253l3.054 5.253m-6.108 0h6.108m-6.108 0H13.58m7.974 0l1.018 1.751h-10.01m1.018-1.75l-1.018 1.75m18.312 6.796L18.5 41 6.126 29.284c-2.448-2.317-4.115-5.27-4.79-8.483a15.751 15.751 0 01.996-9.573C3.657 8.2 5.9 5.613 8.778 3.792 11.655 1.972 15.038 1 18.5 1c3.461 0 6.845.972 9.723 2.792 2.877 1.82 5.12 4.408 6.445 7.436a15.75 15.75 0 01.996 9.573c-.675 3.214-2.342 6.166-4.79 8.483z" stroke="#F6F7FF" stroke-width=".5"/></svg>
